outputs/icons/content/remove_circle_round.svg

<svg xmlns="http://www.w3.org/2000/svg" width="1200" height="1200" fill="none"><g clip-path="url(#a)"><path fill="#000" d="M600 100c-276 0-500 224-500 500s224 500 500 500 500-224 500-500-224-500-500-500m200 550H400c-27.5 0-50-22.5-50-50s22.5-50 50-50h400c27.5 0 50 22.5 50 50s-22.5 50-50 50"/></g><defs><clipPath id="a"><path fill="#fff" d="M0 0h1200v1200H0z"/></clipPath></defs></svg>

<svg width="1200" height="1200" viewBox="0 0 1200 1200" fill="none" xmlns="http://www.w3.org/2000/svg"><g clip-path="url(#clip0_225_3305)"><path d="M600 100C324 100 100 324 100 600C100 876 324 1100 600 1100C876 1100 1100 876 1100 600C1100 324 876 100 600 100ZM800 650H400C372.5 650 350 627.5 350 600C350 572.5 372.5 550 400 550H800C827.5 550 850 572.5 850 600C850 627.5 827.5 650 800 650Z" fill="#1D1E23"/></g><defs><clipPath id="clip0_225_3305"><path width="24" fill="white" d="M0 0H1200V1200H0V0z"/></clipPath></defs></svg>
